X: 8
T: After The Battle Of Aughrim
R: polka
M: 2/4
L: 1/8
K: Ador
|:A>G|EA A (3B/c/d/| e>d c>A | BG G/F/G/A/ | BA/G/ ED |
EA A (3B/c/d/ | ee/d/ ea/g/ | e>d B/e/d/B/ | A2 A2 :||
|:a>g ef/g/ | a/b/a/g/ ef/g/ | a>f g>e | dB G2 |
a>g ef/g/ | a/b/a/g/ e>d | Be dB | A2 A2 :||


